X:1
T:Title
%%score { 1 | 2 }
L:1/8
M:4/4
K:Db
V:1 treble nm="Grand Piano"
V:2 bass 
V:1
 z4 z2[Q:1/4=110] [FA]2 | F3 F _F2 =F2 | A2 A4 F2 | A3 [EG] [EG]2 [=DF]2 | [CEG]6 [EG]2 | %5
 [EG]3 [EG] [DF]2 [EG]2 | [EGc]2 [EGc]4 [CGB]2 | [GB]2 [FA]2 [Fd]2 [GB]2 | [FA]6 [FA]2 | %9
 F3 F _F2 =F2 | A2 A4 A2 | [Fd]3 [Fd] d2 c2 | B6 B2 | A3 A d2 d2 | d2 d4 DE | F F2 G F2 [CE]2 | %16
[M:3/4] D6 |[M:1/4] [FA]2 |[M:4/4] [Fd]2 [Fd]2 z2 [FA]2 | [GB]2 [FA]2 z2 [DA]2 | %20
 [A,CA]3 [A,CG] [A,CE]2 [CGB]2 | [DFA]3 [A,EG] [A,DF]2 [DFA]2 | [DGB]2 [DGB]2 z2 [Gd]2 | %23
[M:3/4] [Fd]2 [FA]2 z2 |[M:1/4] F2 |[M:4/4] F3 E E2 F2 | [CE]6 [A,GA]2 | [Fd]2 [Fd]2 z2 [FA]2 | %28
 [GB]2 [FA]2 z2 [DA]2 | [A,CA]3 [A,CG] [A,CE]2 [CGB]2 | [DFA]3 [A,EG] [A,DF]2 [DFA]2 | %31
 [DGB]2 [DGB]2 z2 [Gd]2 |[M:3/4] [Fd]2 [FA]2 z2 |[M:1/4] d2 |[M:4/4] d3 d d2 e2 |[M:3/4] [Fd]6 |] %36
V:2
 z4 z2 [D,D]2 | [D,A,D]3 [D,A,D] [D,=G,D]2 [D,A,D]2 | [D,F,D]2 [D,F,D]4 [D,A,D]2 | %3
 [E,A,C]3 [A,,A,] [A,,A,]2 [A,,A,]2 | A,,6 [A,,A,]2 | [A,,A,]3 [A,,A,] [A,,A,]2 [A,,A,]2 | %6
 A,,2 A,,4 A,,2 | [D,D]2 [D,D]2 [D,A,]2 [D,D]2 | [D,D]6 [D,D]2 | %9
 [D,A,D]3 [D,A,D] [D,=G,D]2 [D,A,D]2 | [D,F,D]2 [D,F,D]4 [D,F,D]2 | %11
 [D,A,]3 [D,A,][K:treble] [F,=A,F]2 [F,EF]2 | [G,DG]6 [G,DG]2 | [A,DF]3 [A,DF] [=A,D_F]2 [A,D=G]2 | %14
 [A,DF]2 [A,DF]4[K:bass] [F,A,][G,B,D] | [A,D] [A,D]2 [G,B,E] [A,D]2 [A,,G,]2 |[M:3/4] [D,F,]6 | %17
[M:1/4] [D,D]2 |[M:4/4] [D,A,]2 [D,A,]2 z2 [D,D]2 | [D,D]2 [D,D]2 z2 [D,F,]2 | E,3 E, A,,2 A,,2 | %21
 D,3 D, D,2 D,2 | G,2 G,2 z2 [G,B,]2 |[M:3/4] [D,A,]2 [D,D]2 z2 |[M:1/4] [D,A,D]2 | %25
[M:4/4] [E,=G,D]3 [E,G,D] [E,G,D]2 [E,G,D]2 | A,2 G,2 F,2 E,2 | [D,A,]2 [D,A,]2 z2 [D,D]2 | %28
 [D,D]2 [D,D]2 z2 [D,F,]2 | E,3 E, A,,2 A,,2 | D,3 D, D,2 D,2 | G,2 G,2 z2 [G,B,]2 | %32
[M:3/4] [D,A,]2 [D,D]2 z2 |[M:1/4] [F,A,D]2 | %34
[M:4/4] [F,A,D]3[K:treble] [=G,B,_F] [A,D=F]2[K:bass] [A,,CG]2 |[M:3/4] [D,A,D]6 |] %36

